assets/svg/field-type-quarterly-selected.svg

<?xml version="1.0" encoding="UTF-8" standalone="no"?>
<svg preserveAspectRatio="xMidYMin slice" version="1.1" viewBox="0 0 120 200" xmlns:xlink="http://www.w3.org/1999/xlink" xmlns="http://www.w3.org/2000/svg"><g transform="translate(10,10)"><g filter="url(#shadow)"><defs><filter height="200%" id="shadow" width="200%" x="-20%" y="-20%"><feOffset dx="0.2" dy="0.2" in="SourceAlpha" result="offsetOut" /><feGaussianBlur in="offsetOut" result="blurOut" std-deviation="1" /><feBlend in2="blurOut" in="SourceGraphic" mode="normal" /></filter><pattern height="20" id="void" patternUnits="userSpaceOnUse" width="20"><rect fill="#fff" height="20" width="20" x="0" y="0" /><rect fill="#ddd" height="10" width="10" x="0" y="0" /><rect fill="#ddd" height="10" width="10" x="10" y="10" /></pattern><pattern height="4" id="selected" patternUnits="userSpaceOnUse" width="4"><rect fill="#f5f5f5" height="4" width="4" x="0" y="0" /><g fill="#000"><circle cx="0" cy="0" r="0.3" /><circle cx="4" cy="0" r="0.3" /><circle cx="0" cy="4" r="0.3" /><circle cx="4" cy="4" r="0.3" /><circle cx="2" cy="2" r="0.3" /></g></pattern><pattern height="20" id="ermine" patternUnits="userSpaceOnUse" width="12.5" x="-3.125" y="-5"><rect fill="#f6f6f6" height="20" width="12.5" x="0" y="0" /><g fill="#333333"><path d="M 47.757634,0 C 60.324696,15.689314 25.136924,21.898666 44.167046,36.607392
    52.24587,41.673746 71.273896,30.723464 54.57765,17.322176
    52.423302,16.178163 62.11999,8.3349512 47.757634,0 Z m 21.182372,36.935142 c
    -3.23154,0.326846 -6.282816,2.290268 -9.155302,7.193166 -3.590588,8.33495
    12.209402,22.716724 22.98117,5.06625 C 83.483996,47.069952 94.0755,53.93163
    100,39.386326 89.946316,49.845864 79.713166,37.425428 70.377642,36.935142 Z
    M 29.80469,37.099022 C 20.469164,37.58931 10.053647,50.173186 0,39.55021
    5.9244804,54.095512 16.51881,47.070414 17.416458,49.358438 28.0087,67.008916
    43.805884,52.627142 40.215296,44.292192 36.983772,38.73555 33.395278,36.9356
    29.80469,37.099026 Z m 21.003542,10.13249 c -8.25835,37.262136
    -23.51556,63.576958 -40.211787,82.534868 7.001653,-1.96117
    14.718613,-7.19213 22.258843,-11.93164 -4.667764,9.80582 -9.154602,18.14082
    -13.822364,26.80264 2.692942,-0.98059 11.489886,-9.64435 23.338826,-22.3919
    1.795296,17.48703 4.305204,25.8241 8.07532,37.75452 3.052012,-11.93042
    5.208468,-19.9411 7.54234,-37.9184 7.181178,8.00805 14.001888,16.17984
    23.696484,23.04393 L 68.221186,117.34659 c 7.001634,4.41265
    14.72282,10.29262 22.083522,12.74406 C 72.710832,110.15215
    57.989412,84.493648 50.808232,47.231516 Z" transform="scale(0.0625,0.0625)" /><path d="M 47.757634,0 C 60.324696,15.689314 25.136924,21.898666 44.167046,36.607392
    52.24587,41.673746 71.273896,30.723464 54.57765,17.322176
    52.423302,16.178163 62.11999,8.3349512 47.757634,0 Z m 21.182372,36.935142 c
    -3.23154,0.326846 -6.282816,2.290268 -9.155302,7.193166 -3.590588,8.33495
    12.209402,22.716724 22.98117,5.06625 C 83.483996,47.069952 94.0755,53.93163
    100,39.386326 89.946316,49.845864 79.713166,37.425428 70.377642,36.935142 Z
    M 29.80469,37.099022 C 20.469164,37.58931 10.053647,50.173186 0,39.55021
    5.9244804,54.095512 16.51881,47.070414 17.416458,49.358438 28.0087,67.008916
    43.805884,52.627142 40.215296,44.292192 36.983772,38.73555 33.395278,36.9356
    29.80469,37.099026 Z m 21.003542,10.13249 c -8.25835,37.262136
    -23.51556,63.576958 -40.211787,82.534868 7.001653,-1.96117
    14.718613,-7.19213 22.258843,-11.93164 -4.667764,9.80582 -9.154602,18.14082
    -13.822364,26.80264 2.692942,-0.98059 11.489886,-9.64435 23.338826,-22.3919
    1.795296,17.48703 4.305204,25.8241 8.07532,37.75452 3.052012,-11.93042
    5.208468,-19.9411 7.54234,-37.9184 7.181178,8.00805 14.001888,16.17984
    23.696484,23.04393 L 68.221186,117.34659 c 7.001634,4.41265
    14.72282,10.29262 22.083522,12.74406 C 72.710832,110.15215
    57.989412,84.493648 50.808232,47.231516 Z" transform="translate(6.25,10) scale(0.0625,0.0625)" /></g></pattern><pattern height="20" id="ermines" patternUnits="userSpaceOnUse" width="12.5" x="-3.125" y="-5"><rect fill="#333333" height="20" width="12.5" x="0" y="0" /><g fill="#f6f6f6"><path d="M 47.757634,0 C 60.324696,15.689314 25.136924,21.898666 44.167046,36.607392
    52.24587,41.673746 71.273896,30.723464 54.57765,17.322176
    52.423302,16.178163 62.11999,8.3349512 47.757634,0 Z m 21.182372,36.935142 c
    -3.23154,0.326846 -6.282816,2.290268 -9.155302,7.193166 -3.590588,8.33495
    12.209402,22.716724 22.98117,5.06625 C 83.483996,47.069952 94.0755,53.93163
    100,39.386326 89.946316,49.845864 79.713166,37.425428 70.377642,36.935142 Z
    M 29.80469,37.099022 C 20.469164,37.58931 10.053647,50.173186 0,39.55021
    5.9244804,54.095512 16.51881,47.070414 17.416458,49.358438 28.0087,67.008916
    43.805884,52.627142 40.215296,44.292192 36.983772,38.73555 33.395278,36.9356
    29.80469,37.099026 Z m 21.003542,10.13249 c -8.25835,37.262136
    -23.51556,63.576958 -40.211787,82.534868 7.001653,-1.96117
    14.718613,-7.19213 22.258843,-11.93164 -4.667764,9.80582 -9.154602,18.14082
    -13.822364,26.80264 2.692942,-0.98059 11.489886,-9.64435 23.338826,-22.3919
    1.795296,17.48703 4.305204,25.8241 8.07532,37.75452 3.052012,-11.93042
    5.208468,-19.9411 7.54234,-37.9184 7.181178,8.00805 14.001888,16.17984
    23.696484,23.04393 L 68.221186,117.34659 c 7.001634,4.41265
    14.72282,10.29262 22.083522,12.74406 C 72.710832,110.15215
    57.989412,84.493648 50.808232,47.231516 Z" transform="scale(0.0625,0.0625)" /><path d="M 47.757634,0 C 60.324696,15.689314 25.136924,21.898666 44.167046,36.607392
    52.24587,41.673746 71.273896,30.723464 54.57765,17.322176
    52.423302,16.178163 62.11999,8.3349512 47.757634,0 Z m 21.182372,36.935142 c
    -3.23154,0.326846 -6.282816,2.290268 -9.155302,7.193166 -3.590588,8.33495
    12.209402,22.716724 22.98117,5.06625 C 83.483996,47.069952 94.0755,53.93163
    100,39.386326 89.946316,49.845864 79.713166,37.425428 70.377642,36.935142 Z
    M 29.80469,37.099022 C 20.469164,37.58931 10.053647,50.173186 0,39.55021
    5.9244804,54.095512 16.51881,47.070414 17.416458,49.358438 28.0087,67.008916
    43.805884,52.627142 40.215296,44.292192 36.983772,38.73555 33.395278,36.9356
    29.80469,37.099026 Z m 21.003542,10.13249 c -8.25835,37.262136
    -23.51556,63.576958 -40.211787,82.534868 7.001653,-1.96117
    14.718613,-7.19213 22.258843,-11.93164 -4.667764,9.80582 -9.154602,18.14082
    -13.822364,26.80264 2.692942,-0.98059 11.489886,-9.64435 23.338826,-22.3919
    1.795296,17.48703 4.305204,25.8241 8.07532,37.75452 3.052012,-11.93042
    5.208468,-19.9411 7.54234,-37.9184 7.181178,8.00805 14.001888,16.17984
    23.696484,23.04393 L 68.221186,117.34659 c 7.001634,4.41265
    14.72282,10.29262 22.083522,12.74406 C 72.710832,110.15215
    57.989412,84.493648 50.808232,47.231516 Z" transform="translate(6.25,10) scale(0.0625,0.0625)" /></g></pattern><pattern height="20" id="erminois" patternUnits="userSpaceOnUse" width="12.5" x="-3.125" y="-5"><rect fill="#f2bc51" height="20" width="12.5" x="0" y="0" /><g fill="#333333"><path d="M 47.757634,0 C 60.324696,15.689314 25.136924,21.898666 44.167046,36.607392
    52.24587,41.673746 71.273896,30.723464 54.57765,17.322176
    52.423302,16.178163 62.11999,8.3349512 47.757634,0 Z m 21.182372,36.935142 c
    -3.23154,0.326846 -6.282816,2.290268 -9.155302,7.193166 -3.590588,8.33495
    12.209402,22.716724 22.98117,5.06625 C 83.483996,47.069952 94.0755,53.93163
    100,39.386326 89.946316,49.845864 79.713166,37.425428 70.377642,36.935142 Z
    M 29.80469,37.099022 C 20.469164,37.58931 10.053647,50.173186 0,39.55021
    5.9244804,54.095512 16.51881,47.070414 17.416458,49.358438 28.0087,67.008916
    43.805884,52.627142 40.215296,44.292192 36.983772,38.73555 33.395278,36.9356
    29.80469,37.099026 Z m 21.003542,10.13249 c -8.25835,37.262136
    -23.51556,63.576958 -40.211787,82.534868 7.001653,-1.96117
    14.718613,-7.19213 22.258843,-11.93164 -4.667764,9.80582 -9.154602,18.14082
    -13.822364,26.80264 2.692942,-0.98059 11.489886,-9.64435 23.338826,-22.3919
    1.795296,17.48703 4.305204,25.8241 8.07532,37.75452 3.052012,-11.93042
    5.208468,-19.9411 7.54234,-37.9184 7.181178,8.00805 14.001888,16.17984
    23.696484,23.04393 L 68.221186,117.34659 c 7.001634,4.41265
    14.72282,10.29262 22.083522,12.74406 C 72.710832,110.15215
    57.989412,84.493648 50.808232,47.231516 Z" transform="scale(0.0625,0.0625)" /><path d="M 47.757634,0 C 60.324696,15.689314 25.136924,21.898666 44.167046,36.607392
    52.24587,41.673746 71.273896,30.723464 54.57765,17.322176
    52.423302,16.178163 62.11999,8.3349512 47.757634,0 Z m 21.182372,36.935142 c
    -3.23154,0.326846 -6.282816,2.290268 -9.155302,7.193166 -3.590588,8.33495
    12.209402,22.716724 22.98117,5.06625 C 83.483996,47.069952 94.0755,53.93163
    100,39.386326 89.946316,49.845864 79.713166,37.425428 70.377642,36.935142 Z
    M 29.80469,37.099022 C 20.469164,37.58931 10.053647,50.173186 0,39.55021
    5.9244804,54.095512 16.51881,47.070414 17.416458,49.358438 28.0087,67.008916
    43.805884,52.627142 40.215296,44.292192 36.983772,38.73555 33.395278,36.9356
    29.80469,37.099026 Z m 21.003542,10.13249 c -8.25835,37.262136
    -23.51556,63.576958 -40.211787,82.534868 7.001653,-1.96117
    14.718613,-7.19213 22.258843,-11.93164 -4.667764,9.80582 -9.154602,18.14082
    -13.822364,26.80264 2.692942,-0.98059 11.489886,-9.64435 23.338826,-22.3919
    1.795296,17.48703 4.305204,25.8241 8.07532,37.75452 3.052012,-11.93042
    5.208468,-19.9411 7.54234,-37.9184 7.181178,8.00805 14.001888,16.17984
    23.696484,23.04393 L 68.221186,117.34659 c 7.001634,4.41265
    14.72282,10.29262 22.083522,12.74406 C 72.710832,110.15215
    57.989412,84.493648 50.808232,47.231516 Z" transform="translate(6.25,10) scale(0.0625,0.0625)" /></g></pattern><pattern height="20" id="pean" patternUnits="userSpaceOnUse" width="12.5" x="-3.125" y="-5"><rect fill="#333333" height="20" width="12.5" x="0" y="0" /><g fill="#f2bc51"><path d="M 47.757634,0 C 60.324696,15.689314 25.136924,21.898666 44.167046,36.607392
    52.24587,41.673746 71.273896,30.723464 54.57765,17.322176
    52.423302,16.178163 62.11999,8.3349512 47.757634,0 Z m 21.182372,36.935142 c
    -3.23154,0.326846 -6.282816,2.290268 -9.155302,7.193166 -3.590588,8.33495
    12.209402,22.716724 22.98117,5.06625 C 83.483996,47.069952 94.0755,53.93163
    100,39.386326 89.946316,49.845864 79.713166,37.425428 70.377642,36.935142 Z
    M 29.80469,37.099022 C 20.469164,37.58931 10.053647,50.173186 0,39.55021
    5.9244804,54.095512 16.51881,47.070414 17.416458,49.358438 28.0087,67.008916
    43.805884,52.627142 40.215296,44.292192 36.983772,38.73555 33.395278,36.9356
    29.80469,37.099026 Z m 21.003542,10.13249 c -8.25835,37.262136
    -23.51556,63.576958 -40.211787,82.534868 7.001653,-1.96117
    14.718613,-7.19213 22.258843,-11.93164 -4.667764,9.80582 -9.154602,18.14082
    -13.822364,26.80264 2.692942,-0.98059 11.489886,-9.64435 23.338826,-22.3919
    1.795296,17.48703 4.305204,25.8241 8.07532,37.75452 3.052012,-11.93042
    5.208468,-19.9411 7.54234,-37.9184 7.181178,8.00805 14.001888,16.17984
    23.696484,23.04393 L 68.221186,117.34659 c 7.001634,4.41265
    14.72282,10.29262 22.083522,12.74406 C 72.710832,110.15215
    57.989412,84.493648 50.808232,47.231516 Z" transform="scale(0.0625,0.0625)" /><path d="M 47.757634,0 C 60.324696,15.689314 25.136924,21.898666 44.167046,36.607392
    52.24587,41.673746 71.273896,30.723464 54.57765,17.322176
    52.423302,16.178163 62.11999,8.3349512 47.757634,0 Z m 21.182372,36.935142 c
    -3.23154,0.326846 -6.282816,2.290268 -9.155302,7.193166 -3.590588,8.33495
    12.209402,22.716724 22.98117,5.06625 C 83.483996,47.069952 94.0755,53.93163
    100,39.386326 89.946316,49.845864 79.713166,37.425428 70.377642,36.935142 Z
    M 29.80469,37.099022 C 20.469164,37.58931 10.053647,50.173186 0,39.55021
    5.9244804,54.095512 16.51881,47.070414 17.416458,49.358438 28.0087,67.008916
    43.805884,52.627142 40.215296,44.292192 36.983772,38.73555 33.395278,36.9356
    29.80469,37.099026 Z m 21.003542,10.13249 c -8.25835,37.262136
    -23.51556,63.576958 -40.211787,82.534868 7.001653,-1.96117
    14.718613,-7.19213 22.258843,-11.93164 -4.667764,9.80582 -9.154602,18.14082
    -13.822364,26.80264 2.692942,-0.98059 11.489886,-9.64435 23.338826,-22.3919
    1.795296,17.48703 4.305204,25.8241 8.07532,37.75452 3.052012,-11.93042
    5.208468,-19.9411 7.54234,-37.9184 7.181178,8.00805 14.001888,16.17984
    23.696484,23.04393 L 68.221186,117.34659 c 7.001634,4.41265
    14.72282,10.29262 22.083522,12.74406 C 72.710832,110.15215
    57.989412,84.493648 50.808232,47.231516 Z" transform="translate(6.25,10) scale(0.0625,0.0625)" /></g></pattern></defs><defs><clipPath id="mask_1"><path d="M0 0h100v120h-100z" fill="#fff" stroke="none" /></clipPath></defs><g clip-path="url(#mask_1)"><g><g><path d="M0 0h100v120h-100z" fill="#f0f0f0" /><g style="pointer-events:visiblePainted;cursor:pointer;"><defs><clipPath id="clip-0_4"><path d="M 0 30 L 33.333333333333336 30 L 33.333333333333336 0 L 33.333333333333336,-1000 -1000,-1000 L -1000,30 L 0,30 z" fill="#fff" /><path d="M 33.333333333333336 0 L 33.333333333333336 30 L 0 30" fill="none" stroke-width="0.1" stroke="#fff" /></clipPath></defs><g clip-path="url(#clip-0_4)"><g><g style="pointer-events:visiblePainted;cursor:pointer;"><rect fill="#f6f6f6" height="1100" width="1100" x="-500" y="-500" /></g></g></g><defs><clipPath id="clip-1_6"><path d="M 33.333333333333336 0 L 33.333333333333336 30 L 66.66666666666667 30 L 66.66666666666667 0 L 66.66666666666667,-1000 L 33.333333333333336,-1000 L 33.333333333333336,0 z" fill="#fff" /><path d="M 66.66666666666667 0 L 66.66666666666667 30 L 33.333333333333336 30" fill="none" stroke-width="0.1" stroke="#fff" /></clipPath></defs><g clip-path="url(#clip-1_6)"><g><g style="pointer-events:visiblePainted;cursor:pointer;"><rect fill="#f2bc51" height="1100" width="1100" x="-500" y="-500" /></g></g></g><defs><clipPath id="clip-2_8"><path d="M 66.66666666666667 0 L 66.66666666666667 30 L 100 30 L 1000,30 1000,-1000 L 66.66666666666667,-1000 L 66.66666666666667,0 z" fill="#fff" /><path d="M 100 0 L 100 30 L 66.66666666666667 30" fill="none" stroke-width="0.1" stroke="#fff" /></clipPath></defs><g clip-path="url(#clip-2_8)"><g><g style="pointer-events:visiblePainted;cursor:pointer;"><rect fill="#f6f6f6" height="1100" width="1100" x="-500" y="-500" /></g></g></g><defs><clipPath id="clip-3_10"><path d="M 0 30 L 33.333333333333336 30 L 33.333333333333336 60 L 0 60 L -1000,60 L -1000,30 L 0,30 z" fill="#fff" /><path d="M 33.333333333333336 30 L 33.333333333333336 60 L 0 60" fill="none" stroke-width="0.1" stroke="#fff" /></clipPath></defs><g clip-path="url(#clip-3_10)"><g><g style="pointer-events:visiblePainted;cursor:pointer;"><rect fill="#f2bc51" height="1100" width="1100" x="-500" y="-500" /></g></g></g><defs><clipPath id="clip-4_12"><path d="M 33.333333333333336 30 L 66.66666666666667 30 L 66.66666666666667 60 L 33.333333333333336 60 z" fill="#fff" /><path d="M 66.66666666666667 30 L 66.66666666666667 60 L 33.333333333333336 60" fill="none" stroke-width="0.1" stroke="#fff" /></clipPath></defs><g clip-path="url(#clip-4_12)"><g><g style="pointer-events:visiblePainted;cursor:pointer;"><rect fill="#f6f6f6" height="1100" width="1100" x="-500" y="-500" /></g></g></g><defs><clipPath id="clip-5_14"><path d="M 100 60 L 66.66666666666667 60 L 66.66666666666667 30 L 100 30 L 1000,30 L 1000,60 L 100,60 z" fill="#fff" /><path d="M 100 30 L 100 60 L 66.66666666666667 60" fill="none" stroke-width="0.1" stroke="#fff" /></clipPath></defs><g clip-path="url(#clip-5_14)"><g><g style="pointer-events:visiblePainted;cursor:pointer;"><rect fill="#f2bc51" height="1100" width="1100" x="-500" y="-500" /></g></g></g><defs><clipPath id="clip-6_16"><path d="M 0 60 L 33.333333333333336 60 L 33.333333333333336 90 L 0 90 L -1000,90 L -1000,60 L 0,60 z" fill="#fff" /><path d="M 33.333333333333336 60 L 33.333333333333336 90 L 0 90" fill="none" stroke-width="0.1" stroke="#fff" /></clipPath></defs><g clip-path="url(#clip-6_16)"><g><g style="pointer-events:visiblePainted;cursor:pointer;"><rect fill="#f6f6f6" height="1100" width="1100" x="-500" y="-500" /></g></g></g><defs><clipPath id="clip-7_18"><path d="M 33.333333333333336 60 L 66.66666666666667 60 L 66.66666666666667 90 L 33.333333333333336 90 z" fill="#fff" /><path d="M 66.66666666666667 60 L 66.66666666666667 90 L 33.333333333333336 90" fill="none" stroke-width="0.1" stroke="#fff" /></clipPath></defs><g clip-path="url(#clip-7_18)"><g><g style="pointer-events:visiblePainted;cursor:pointer;"><rect fill="#f2bc51" height="1100" width="1100" x="-500" y="-500" /></g></g></g><defs><clipPath id="clip-8_20"><path d="M 100 90 L 66.66666666666667 90 L 66.66666666666667 60 L 100 60 L 1000,60 L 1000,90 L 100,90 z" fill="#fff" /><path d="M 100 60 L 100 90 L 66.66666666666667 90" fill="none" stroke-width="0.1" stroke="#fff" /></clipPath></defs><g clip-path="url(#clip-8_20)"><g><g style="pointer-events:visiblePainted;cursor:pointer;"><rect fill="#f6f6f6" height="1100" width="1100" x="-500" y="-500" /></g></g></g><defs><clipPath id="clip-9_22"><path d="M 0 90 L 33.333333333333336 90 L 33.333333333333336 120 L 33.333333333333336,1000 -1000,1000 L -1000,90 L 0,90 z" fill="#fff" /><path d="M 33.333333333333336 90 L 33.333333333333336 120 L 0 120" fill="none" stroke-width="0.1" stroke="#fff" /></clipPath></defs><g clip-path="url(#clip-9_22)"><g><g style="pointer-events:visiblePainted;cursor:pointer;"><rect fill="#f2bc51" height="1100" width="1100" x="-500" y="-500" /></g></g></g><defs><clipPath id="clip-10_24"><path d="M 33.333333333333336 120 L 33.333333333333336 90 L 66.66666666666667 90 L 66.66666666666667 120 L 66.66666666666667,1000 L 33.333333333333336,1000 L 33.333333333333336,120 z" fill="#fff" /><path d="M 66.66666666666667 90 L 66.66666666666667 120 L 33.333333333333336 120" fill="none" stroke-width="0.1" stroke="#fff" /></clipPath></defs><g clip-path="url(#clip-10_24)"><g><g style="pointer-events:visiblePainted;cursor:pointer;"><rect fill="#f6f6f6" height="1100" width="1100" x="-500" y="-500" /></g></g></g><defs><clipPath id="clip-11_26"><path d="M 66.66666666666667 120 L 66.66666666666667 90 L 100 90 L 1000,90 1000,1000 L 66.66666666666667,1000 L 66.66666666666667,120 z" fill="#fff" /><path d="M 100 90 L 100 120 L 66.66666666666667 120" fill="none" stroke-width="0.1" stroke="#fff" /></clipPath></defs><g clip-path="url(#clip-11_26)"><g><g style="pointer-events:visiblePainted;cursor:pointer;"><rect fill="#f2bc51" height="1100" width="1100" x="-500" y="-500" /></g></g></g><g fill="none" stroke-linecap="round" stroke-linejoin="round" stroke-width="0.5" stroke="#333333"><path d="M 33.333333333333336 -50 L 33.333333333333336 170" /><path d="M 66.66666666666667 -50 L 66.66666666666667 170" /><path d="M -50 30 L 150 30" /><path d="M -50 60 L 150 60" /><path d="M -50 90 L 150 90" /></g></g></g></g></g><g fill="none" stroke-linecap="round" stroke-linejoin="round" stroke-width="0.5" stroke="#333333"><path d="M0 0h100v120h-100z" /></g></g></g></svg>

<svg preserveAspectRatio="xMidYMin slice" viewBox="0 0 120 200" xmlns="http://www.w3.org/2000/svg"><g filter="url(#a)" transform="translate(10 10)"><defs><filter height="200%" id="a" width="200%" x="-20%" y="-20%"><feOffset dx=".2" dy=".2" in="SourceAlpha" result="offsetOut"/><feGaussianBlur in="offsetOut" result="blurOut"/><feBlend in2="blurOut" in="SourceGraphic"/></filter></defs><defs><clipPath id="b"><path d="M0 0h100v120H0z" fill="#fff"/></clipPath></defs><g clip-path="url(#b)"><path d="M0 0h100v120H0z" fill="#f0f0f0"/><g style="pointer-events:visiblePainted;cursor:pointer"><defs><clipPath id="c"><path d="M0 30h33.333v-1030H-1000V30H0z" fill="#fff"/><path d="M33.333 0v30H0" fill="none" stroke-width=".1" stroke="#fff"/></clipPath></defs><g clip-path="url(#c)"><path fill="#f6f6f6" d="M-500-500H600V600H-500z" style="pointer-events:visiblePainted;cursor:pointer"/></g><defs><clipPath id="d"><path d="M33.333 0v30h33.334v-1030H33.333V0z" fill="#fff"/><path d="M66.667 0v30H33.333" fill="none" stroke-width=".1" stroke="#fff"/></clipPath></defs><g clip-path="url(#d)"><path fill="#f2bc51" d="M-500-500H600V600H-500z" style="pointer-events:visiblePainted;cursor:pointer"/></g><defs><clipPath id="e"><path d="M66.667 0v30H1000v-1030H66.667V0z" fill="#fff"/><path d="M100 0v30H66.667" fill="none" stroke-width=".1" stroke="#fff"/></clipPath></defs><g clip-path="url(#e)"><path fill="#f6f6f6" d="M-500-500H600V600H-500z" style="pointer-events:visiblePainted;cursor:pointer"/></g><defs><clipPath id="f"><path d="M0 30h33.333v30H-1000V30H0z" fill="#fff"/><path d="M33.333 30v30H0" fill="none" stroke-width=".1" stroke="#fff"/></clipPath></defs><g clip-path="url(#f)"><path fill="#f2bc51" d="M-500-500H600V600H-500z" style="pointer-events:visiblePainted;cursor:pointer"/></g><defs><clipPath id="g"><path d="M33.333 30h33.334v30H33.333z" fill="#fff"/><path d="M66.667 30v30H33.333" fill="none" stroke-width=".1" stroke="#fff"/></clipPath></defs><g clip-path="url(#g)"><path fill="#f6f6f6" d="M-500-500H600V600H-500z" style="pointer-events:visiblePainted;cursor:pointer"/></g><defs><clipPath id="h"><path d="M100 60H66.667V30H1000v30H100z" fill="#fff"/><path d="M100 30v30H66.667" fill="none" stroke-width=".1" stroke="#fff"/></clipPath></defs><g clip-path="url(#h)"><path fill="#f2bc51" d="M-500-500H600V600H-500z" style="pointer-events:visiblePainted;cursor:pointer"/></g><defs><clipPath id="i"><path d="M0 60h33.333v30H-1000V60H0z" fill="#fff"/><path d="M33.333 60v30H0" fill="none" stroke-width=".1" stroke="#fff"/></clipPath></defs><g clip-path="url(#i)"><path fill="#f6f6f6" d="M-500-500H600V600H-500z" style="pointer-events:visiblePainted;cursor:pointer"/></g><defs><clipPath id="j"><path d="M33.333 60h33.334v30H33.333z" fill="#fff"/><path d="M66.667 60v30H33.333" fill="none" stroke-width=".1" stroke="#fff"/></clipPath></defs><g clip-path="url(#j)"><path fill="#f2bc51" d="M-500-500H600V600H-500z" style="pointer-events:visiblePainted;cursor:pointer"/></g><defs><clipPath id="k"><path d="M100 90H66.667V60H1000v30H100z" fill="#fff"/><path d="M100 60v30H66.667" fill="none" stroke-width=".1" stroke="#fff"/></clipPath></defs><g clip-path="url(#k)"><path fill="#f6f6f6" d="M-500-500H600V600H-500z" style="pointer-events:visiblePainted;cursor:pointer"/></g><defs><clipPath id="l"><path d="M0 90h33.333v910H-1000V90H0z" fill="#fff"/><path d="M33.333 90v30H0" fill="none" stroke-width=".1" stroke="#fff"/></clipPath></defs><g clip-path="url(#l)"><path fill="#f2bc51" d="M-500-500H600V600H-500z" style="pointer-events:visiblePainted;cursor:pointer"/></g><defs><clipPath id="m"><path d="M33.333 120V90h33.334v910H33.333V120z" fill="#fff"/><path d="M66.667 90v30H33.333" fill="none" stroke-width=".1" stroke="#fff"/></clipPath></defs><g clip-path="url(#m)"><path fill="#f6f6f6" d="M-500-500H600V600H-500z" style="pointer-events:visiblePainted;cursor:pointer"/></g><defs><clipPath id="n"><path d="M66.667 120V90H1000v910H66.667V120z" fill="#fff"/><path d="M100 90v30H66.667" fill="none" stroke-width=".1" stroke="#fff"/></clipPath></defs><g clip-path="url(#n)"><path fill="#f2bc51" d="M-500-500H600V600H-500z" style="pointer-events:visiblePainted;cursor:pointer"/></g><path d="M33.333-50v220M66.667-50v220M-50 30h200M-50 60h200M-50 90h200" fill="none" stroke-linecap="round" stroke-linejoin="round" stroke-width=".5" stroke="#333"/></g></g><path d="M0 0h100v120H0z" fill="none" stroke-linecap="round" stroke-linejoin="round" stroke-width=".5" stroke="#333"/></g></svg>
